carriers/postChIt.svg

<svg width="128" height="64" viewBox="0 0 128 64" fill="none" xmlns="http://www.w3.org/2000/svg">
<rect width="128" height="64" rx="6" fill="#FFCC00"/>
<path fill-rule="evenodd" clip-rule="evenodd" d="M90.4065 44L91.6807 38.0219H17.3157L16.0066 44H90.4065Z" fill="#FEFEFE"/>
<path fill-rule="evenodd" clip-rule="evenodd" d="M63.5702 31.2146C63.5702 32.6895 64.4778 33.3964 65.3156 34.064L66.7382 35.12C67.0115 35.307 67.2658 35.5204 67.4974 35.7571C67.5991 35.8483 67.6813 35.959 67.739 36.0828C67.7968 36.2065 67.8289 36.3406 67.8334 36.4771C67.8384 36.6662 67.7929 36.8531 67.7016 37.0188C67.6104 37.1845 67.4766 37.3228 67.3142 37.4196C66.7425 37.7906 65.8567 37.7906 65.32 37.7906C64.4079 37.7722 63.503 37.6253 62.632 37.3542L61.8247 39.6189C63.0116 39.9684 64.2443 40.1375 65.4814 40.1207C66.5588 40.1602 67.6327 39.9775 68.6363 39.584C69.2849 39.355 69.8463 38.9301 70.2427 38.368C70.639 37.8058 70.8508 37.1344 70.8487 36.4466C70.8566 35.7814 70.6312 35.1344 70.2116 34.6182C69.814 34.1587 69.3628 33.7485 68.8676 33.3964L67.5803 32.4364C66.9258 31.9477 66.4371 31.5637 66.4371 31.0095C66.4358 30.7238 66.5457 30.4487 66.7436 30.2427C66.9415 30.0366 67.2119 29.9157 67.4974 29.9055C67.9775 29.8611 68.4598 29.8451 68.9418 29.8575H70.9883L71.4902 27.5404H69.208C68.4579 27.5287 67.7078 27.5564 66.9607 27.6233C65.2153 27.824 63.5571 29.0851 63.5571 31.2146" fill="black"/>
<path fill-rule="evenodd" clip-rule="evenodd" d="M82.0676 27.5403H72.6117L72.1055 29.8574H75.496L73.3142 40.0203H76.0153L78.1971 29.8574H81.5702L82.0676 27.5403Z" fill="black"/>
<path fill-rule="evenodd" clip-rule="evenodd" d="M59.2936 33.7803C58.8572 35.7919 58.0369 37.8908 55.7547 37.8908C53.5729 37.8908 53.2543 35.8268 53.7081 33.7803C54.162 31.7338 54.9649 29.6698 57.247 29.6698C59.4289 29.6698 59.7474 31.7338 59.2936 33.7803ZM57.4827 27.405C53.154 27.405 51.5089 30.3418 50.8238 33.7803C50.1387 37.2188 51.5787 40.1512 55.519 40.1512C59.8434 40.1512 61.4885 37.2188 62.1779 33.7803C62.8674 30.3418 61.423 27.405 57.4827 27.405Z" fill="black"/>
<path fill-rule="evenodd" clip-rule="evenodd" d="M47.5208 31.9345C47.458 32.3962 47.2528 32.8268 46.9336 33.1663C46.6145 33.5058 46.1974 33.7372 45.7404 33.8283C45.453 33.8856 45.1607 33.9149 44.8677 33.9156H43.7768L44.6495 29.84H45.8233C46.0902 29.8319 46.3567 29.8658 46.6131 29.9403C47.2851 30.1585 47.6866 30.8131 47.4859 31.9345M47.115 27.6363C46.7101 27.5803 46.3018 27.5526 45.8931 27.5534H42.4851L39.8015 40.0334H42.4851L43.3099 36.224H44.8677C45.503 36.242 46.1372 36.1625 46.7484 35.9883C47.6336 35.7215 48.4265 35.2123 49.0372 34.5182C49.648 33.8242 50.0523 32.973 50.2044 32.0611C50.6408 29.7309 49.4495 28.0029 47.115 27.6145" fill="black"/>
<path fill-rule="evenodd" clip-rule="evenodd" d="M29.7084 35.1374L32.4575 30.1585L33.1644 35.1374H29.7084ZM34.4735 27.5403H31.2488L25.3622 37.7556H21.7404L23.9222 27.5403H21.243L18.5593 40.0203H27.0422L28.4648 37.4022H33.496L33.867 40.0203H36.568L34.4735 27.5403Z" fill="black"/>
<path fill-rule="evenodd" clip-rule="evenodd" d="M83.5947 35.1374L86.3438 30.1585L87.0507 35.1374H83.5947ZM88.3598 27.5403H85.1394L77.97 40.0203H80.9372L82.3642 37.4022H87.3911L87.762 40.0203H90.4631L88.3598 27.5403Z" fill="black"/>
<path fill-rule="evenodd" clip-rule="evenodd" d="M104.418 27.536L106.015 20H95.887C95.887 20.0262 93.7794 29.8313 93.7707 29.8705H96.2972C96.2972 29.8444 97.9118 22.3345 97.9118 22.3345H103.03L101.411 29.8705H108.995L107.983 34.5833H100.425C100.425 34.6138 98.9154 41.6349 98.9154 41.6349H93.1903C93.1903 41.6611 92.7016 43.9607 92.6929 44H100.927C100.927 43.9738 102.446 36.9353 102.446 36.9353H109.973C109.973 36.9091 111.984 27.5796 111.993 27.536H104.418Z" fill="#FF0000"/>
</svg>

<svg xmlns="http://www.w3.org/2000/svg" width="128" height="64" fill="none"><rect width="128" height="64" fill="#FC0" rx="6"/><path fill="#FEFEFE" fill-rule="evenodd" d="m90.406 44 1.275-5.978H17.316L16.006 44h74.4Z" clip-rule="evenodd"/><path fill="#000" fill-rule="evenodd" d="M63.57 31.215c0 1.475.908 2.181 1.746 2.849l1.422 1.056c.273.187.528.4.76.637a1.011 1.011 0 0 1 .335.72 1.064 1.064 0 0 1-.519.943c-.571.37-1.457.37-1.994.37a9.703 9.703 0 0 1-2.688-.436l-.807 2.265c1.187.35 2.42.519 3.656.502a7.854 7.854 0 0 0 3.155-.537 3.317 3.317 0 0 0 2.213-3.137 2.845 2.845 0 0 0-.637-1.829 7.605 7.605 0 0 0-1.344-1.222l-1.288-.96c-.654-.488-1.143-.872-1.143-1.427a1.1 1.1 0 0 1 1.06-1.104c.48-.044.963-.06 1.445-.047h2.046l.502-2.318h-2.282c-.75-.011-1.5.016-2.247.083-1.746.201-3.404 1.462-3.404 3.592M82.068 27.54h-9.456l-.506 2.317h3.39L73.314 40.02h2.701l2.182-10.163h3.373l.498-2.317ZM59.294 33.78c-.437 2.012-1.257 4.11-3.54 4.11-2.181 0-2.5-2.063-2.046-4.11.454-2.046 1.257-4.11 3.539-4.11 2.182 0 2.5 2.064 2.047 4.11Zm-1.811-6.375c-4.329 0-5.974 2.937-6.66 6.375-.684 3.439.756 6.371 4.696 6.371 4.324 0 5.97-2.932 6.659-6.37.69-3.44-.755-6.376-4.695-6.376ZM47.52 31.934a2.239 2.239 0 0 1-1.78 1.894c-.287.058-.58.087-.872.088h-1.091l.873-4.076h1.173c.267-.008.534.026.79.1.672.218 1.074.873.873 1.994m-.371-4.298a8.793 8.793 0 0 0-1.222-.083h-3.408l-2.684 12.48h2.684l.825-3.809h1.558a6.219 6.219 0 0 0 1.88-.236 4.952 4.952 0 0 0 3.456-3.927c.437-2.33-.755-4.058-3.089-4.447M29.708 35.137l2.75-4.979.706 4.98h-3.456Zm4.766-7.597h-3.225l-5.887 10.216H21.74l2.182-10.216h-2.679l-2.684 12.48h8.483l1.423-2.618h5.031l.371 2.618h2.701l-2.094-12.48ZM83.595 35.137l2.749-4.979.707 4.98h-3.456Zm4.765-7.597h-3.22l-7.17 12.48h2.967l1.427-2.618h5.027l.371 2.618h2.701L88.36 27.54Z" clip-rule="evenodd"/><path fill="red" fill-rule="evenodd" d="M104.418 27.536 106.015 20H95.887c0 .026-2.108 9.831-2.116 9.87h2.526c0-.026 1.615-7.536 1.615-7.536h5.118l-1.619 7.537h7.584l-1.012 4.712h-7.558c0 .03-1.51 7.052-1.51 7.052H93.19c0 .026-.488 2.326-.497 2.365h8.234c0-.026 1.519-7.065 1.519-7.065h7.527c0-.026 2.011-9.355 2.02-9.399h-7.575Z" clip-rule="evenodd"/></svg>
